packages/icons/raw/imported/SoftwareNut.svg

<svg width="32" height="32" viewBox="0 0 32 32" fill="none" xmlns="http://www.w3.org/2000/svg">
<path d="M20.325 16C20.325 18.4215 18.3662 20.3846 15.95 20.3846C13.5337 20.3846 11.575 18.4215 11.575 16C11.575 13.5784 13.5337 11.6154 15.95 11.6154C18.3662 11.6154 20.325 13.5784 20.325 16Z" stroke="black"/>
<path d="M14.6232 6.84308C15.4462 6.38564 16.4537 6.38564 17.2767 6.84308L23.3732 10.2948C24.1887 10.765 24.6924 11.6206 24.7 12.5483V19.4517C24.6924 20.3794 24.1887 21.235 23.3732 21.7052L17.2767 25.1569C16.4537 25.6144 15.4462 25.6144 14.6232 25.1569L8.52667 21.7052C7.71121 21.235 7.20747 20.3794 7.19995 19.4517L7.19995 12.5483C7.20747 11.6206 7.71121 10.765 8.52667 10.2948L14.6232 6.84308Z" stroke="black"/>
</svg>

<svg width="32" height="32" fill="none" xmlns="http://www.w3.org/2000/svg"><path d="M20.325 16a4.38 4.38 0 0 1-4.375 4.385A4.38 4.38 0 0 1 11.575 16a4.38 4.38 0 0 1 4.375-4.385A4.38 4.38 0 0 1 20.325 16Z" stroke="#000"/><path d="M14.623 6.843a2.737 2.737 0 0 1 2.654 0l6.096 3.452a2.63 2.63 0 0 1 1.327 2.253v6.904a2.63 2.63 0 0 1-1.327 2.253l-6.096 3.452a2.737 2.737 0 0 1-2.654 0l-6.096-3.452A2.63 2.63 0 0 1 7.2 19.452v-6.904a2.63 2.63 0 0 1 1.327-2.253l6.096-3.452Z" stroke="#000"/></svg>
